X: 729
T: Leake County Two-Step
B: jims roots
M:C|
L:1/8
Q: 1/4=100
K:G
V:1 
Bc|:"G"dcBd g2g2|dcBd [B2g2][B2g2]|"D"fefg [c2a2][c2a2]|"G"g2ga bage|
"G"dcBd g2g2|dcBd [B2g2][B2g2]|"D"f2e2 dcBA|"G"B2[BG][BG] [B2G2]Bc:|
|:"G"B2G2 DGBG|"D"AFFG F3(D|"C"E2)[c2e2]E2[c2e2]|"G"[g2d2]Bd BAGE|
"G"D2[G2B2]D2[G2B2]|"D"AFFG F3e|"C"(3fgf ed cBAc|"G"B2G2[G3B3]:|]
% abcbook-tune_id 6298c25db8907ad949f7da90


% abcbook-boost 0
% abcbook-tablature 
% abcbook-transpose 
% abcbook-lastupdated 1654178399669
% abcbook-soundfonts 
% abcbook-repeats 1


